X:384
T:Weymouth Quick Step,aka. JBs.065
R:jig 64
S:Jas.Blackshaw MS, 1837, N.Shropshire
A:North Shropshire
N:Titled only "Quickstep" in MS.
Z:T. Weatherall 2006
M:6/8
L:1/8
Q:1/8=140
R:Jig
K:G
d|g2d dBd|g2ab2c'|d'2b gab|c'2aa2b|!
g2d dBd|g2ab2c'|d'2b aga|b2gg2:|!
|:d|gag fef|gdB GBd|gag fef|g3z2:|!
|:d|e2f gfe|e2dd2B|A2B cBA|B2cd2d|!
e2f gfe|e2dd2c|BcB AGA|G3G2:|!
|:d|g3g3|az2z2g|f2f fef|g2ab2d|!
g3g3|az2z2g|fgf fef|g3g2:|

